img/meditations/sound.svg

<svg width="100" height="100" viewBox="0 0 100 100" fill="none" xmlns="http://www.w3.org/2000/svg">
<path d="M45.7031 60.5466L17.5781 68.5635V57.5835L45.7031 49.5669V60.5466Z" fill="#CAE0DD"/>
<path d="M9.76563 98.0467C14.0803 98.0467 17.5781 94.549 17.5781 90.2342C17.5781 85.9196 14.0803 82.4219 9.76563 82.4219C5.45091 82.4219 1.95312 85.9196 1.95312 90.2342C1.95312 94.549 5.45091 98.0467 9.76563 98.0467Z" fill="#CAE0DD"/>
<path d="M37.8906 90.0303C42.2054 90.0303 45.7031 86.5326 45.7031 82.2177C45.7031 77.9031 42.2054 74.4054 37.8906 74.4054C33.576 74.4054 30.078 77.9031 30.078 82.2177C30.078 86.5326 33.576 90.0303 37.8906 90.0303Z" fill="#CAE0DD"/>
<path d="M77.6546 18.8098L98.0468 12.933V1.95312L77.6546 7.82989V18.8098Z" fill="#CAE0DD"/>
<path d="M69.842 48.2931C74.1569 48.2931 77.6546 44.7954 77.6546 40.4805C77.6546 36.166 74.1569 32.668 69.842 32.668C65.5274 32.668 62.0297 36.166 62.0297 40.4805C62.0297 44.7954 65.5274 48.2931 69.842 48.2931Z" fill="#CAE0DD"/>
<path d="M76.7074 82.9115L67.3628 87.8244L69.1474 77.4193L61.5877 70.0504L72.0351 68.5321L76.7074 59.0653L81.3797 68.5321L91.8269 70.0504L84.2671 77.4193L86.0517 87.8244L76.7074 82.9115Z" fill="#7ADBAE"/>
<path d="M14.6813 21.5473L7.00314 25.5838L8.46954 17.0342L2.25781 10.9793L10.8422 9.73183L14.6813 1.95312L18.5203 9.73183L27.1047 10.9793L20.893 17.0342L22.3594 25.5838L14.6813 21.5473Z" fill="#7ADBAE"/>
<path d="M45.7031 47.6138C45.5174 47.6138 45.3383 47.6412 45.1683 47.6898L45.1677 47.6883L39.558 49.2875C38.5206 49.5832 37.9194 50.6638 38.2151 51.7009C38.4597 52.5598 39.242 53.1192 40.0923 53.1192C40.2694 53.1192 40.4497 53.0949 40.6286 53.0441L43.75 52.1546V59.0726L19.5313 65.9758V59.0578L23.7234 57.8629C24.7607 57.5672 25.3621 56.4866 25.0664 55.4492C24.7707 54.4121 23.6904 53.8112 22.6527 54.1063L17.0428 55.7055L17.043 55.7066C16.2248 55.9398 15.625 56.6909 15.625 57.5838V82.4272C13.9916 81.1981 11.9625 80.4686 9.76563 80.4686C4.38086 80.4686 0 84.8495 0 90.2344C0 95.6189 4.38086 99.9998 9.76563 99.9998C15.1504 99.9998 19.5313 95.6189 19.5313 90.2344V70.0378L43.75 63.1343V74.4103C42.1166 73.1815 40.0874 72.4521 37.8906 72.4521C32.506 72.4521 28.125 76.8329 28.125 82.2178C28.125 87.6023 32.506 91.9832 37.8906 91.9832C43.2754 91.9832 47.6563 87.6023 47.6563 82.2178V49.5669C47.6563 48.4881 46.7817 47.6138 45.7031 47.6138ZM9.76563 96.0935C6.53477 96.0935 3.90626 93.4652 3.90626 90.2344C3.90626 87.0035 6.53477 84.3749 9.76563 84.3749C12.9965 84.3749 15.625 87.0035 15.625 90.2344C15.625 93.4652 12.9965 96.0935 9.76563 96.0935ZM37.8906 88.0769C34.6597 88.0769 32.0311 85.4486 32.0311 82.2178C32.0311 78.9869 34.6597 76.3583 37.8906 76.3583C41.1214 76.3583 43.75 78.9869 43.75 82.2178C43.75 85.4486 41.1214 88.0769 37.8906 88.0769Z" fill="black"/>
<path d="M99.2212 0.392772C98.7309 0.023826 98.0957 -0.0929708 97.506 0.0765603L77.1137 5.95333C76.2774 6.19433 75.7015 6.95956 75.7015 7.83008V32.6737C74.068 31.4446 72.0389 30.7152 69.842 30.7152C64.4575 30.7152 60.0766 35.096 60.0766 40.4809C60.0766 45.8657 64.4575 50.2466 69.842 50.2466C75.2269 50.2466 79.6077 45.8657 79.6077 40.4809V20.2797L98.5877 14.81C99.424 14.5689 100 13.8037 100 12.9332V1.95332C100 1.33965 99.7114 0.761718 99.2212 0.392772ZM69.842 46.3403C66.6112 46.3403 63.9829 43.7117 63.9829 40.4809C63.9829 37.25 66.6112 34.6215 69.842 34.6215C73.0729 34.6215 75.7015 37.25 75.7015 40.4809C75.7015 43.7117 73.0729 46.3403 69.842 46.3403ZM96.0937 11.4635L79.6077 16.2144V9.29979L96.0937 4.54882V11.4635Z" fill="black"/>
<path d="M92.1077 68.1173L82.6763 66.7468L78.4586 58.2008C78.1294 57.5342 77.4506 57.1122 76.7072 57.1122C75.964 57.1122 75.2849 57.5342 74.956 58.2008L70.738 66.7468L61.3069 68.1173C60.5711 68.2242 59.96 68.7396 59.73 69.4468C59.5003 70.1536 59.692 70.9299 60.2246 71.4487L67.0489 78.101L65.4377 87.4942C65.312 88.2267 65.6132 88.9676 66.2146 89.4047C66.816 89.8413 67.6134 89.899 68.2714 89.5533L76.7072 85.1182L85.1426 89.553C85.4283 89.7033 85.7406 89.7776 86.0512 89.7776C86.456 89.7776 86.8592 89.6516 87.1994 89.4045C87.8012 88.9676 88.1023 88.227 87.9763 87.4942L86.3652 78.101L93.1897 71.4485C93.722 70.9296 93.9137 70.1533 93.684 69.4465C93.4543 68.7393 92.8434 68.2242 92.1077 68.1173ZM82.9037 76.0205C82.4434 76.469 82.2332 77.1156 82.342 77.749L83.4577 84.2539L77.616 81.1827C77.0472 80.8836 76.3674 80.8836 75.7983 81.1827L69.9566 84.2539L71.0723 77.749C71.1812 77.1156 70.9709 76.469 70.5106 76.0205L65.7849 71.4139L72.3157 70.4648C72.952 70.3725 73.502 69.9727 73.7863 69.3965L76.7072 63.4782L79.628 69.3965C79.9126 69.9727 80.4623 70.3725 81.0986 70.4648L87.6294 71.4139L82.9037 76.0205Z" fill="black"/>
<path d="M6.37108 17.716L5.07811 25.2537C4.95231 25.9863 5.25351 26.7269 5.85505 27.1641C6.45642 27.601 7.25408 27.6588 7.91188 27.3127L14.681 23.7539L21.4504 27.3127C21.7361 27.4629 22.0482 27.5369 22.359 27.5369C22.7639 27.5369 23.167 27.4111 23.5072 27.1639C24.1088 26.7268 24.4099 25.9863 24.2842 25.2535L22.9912 17.7158L28.4678 12.3777C29.0003 11.8588 29.1917 11.0826 28.962 10.3756C28.7323 9.66854 28.1211 9.15331 27.3853 9.04629L19.817 7.94649L16.4326 1.08867C16.1037 0.422071 15.4248 0 14.6812 0C13.9377 0 13.2588 0.422071 12.9299 1.08867L9.54528 7.94669L1.97693 9.04649C1.24119 9.15331 0.630059 9.66874 0.400176 10.3758C0.170293 11.0828 0.36209 11.859 0.894513 12.3779L6.37108 17.716ZM11.123 11.6647C11.7592 11.5723 12.3092 11.1727 12.5935 10.5963L14.681 6.3664L16.7685 10.5963C17.0531 11.1727 17.6029 11.5723 18.2391 11.6647L22.907 12.343L19.5297 15.6355C19.0693 16.0844 18.8592 16.7309 18.9679 17.3645L19.7654 22.0137L15.5902 19.8187C15.3057 19.6691 14.9935 19.5943 14.6814 19.5943C14.3691 19.5943 14.057 19.6691 13.7726 19.8187L9.59745 22.0137L10.3949 17.3645C10.5037 16.7309 10.2935 16.0844 9.8332 15.6355L6.45505 12.343L11.123 11.6647Z" fill="black"/>
<path d="M45.7031 16.8566C44.6243 16.8566 43.75 17.731 43.75 18.8097V20.7628C43.75 21.8415 44.6243 22.7159 45.7031 22.7159C46.7817 22.7159 47.6563 21.8415 47.6563 20.7628V18.8097C47.6563 17.731 46.7817 16.8566 45.7031 16.8566Z" fill="black"/>
<path d="M45.7031 30.5284C44.6243 30.5284 43.75 31.403 43.75 32.4816V34.4347C43.75 35.5136 44.6243 36.3879 45.7031 36.3879C46.7817 36.3879 47.6563 35.5136 47.6563 34.4347V32.4816C47.6563 31.403 46.7817 30.5284 45.7031 30.5284Z" fill="black"/>
<path d="M53.5157 24.6691H51.5625C50.4837 24.6691 49.6094 25.5435 49.6094 26.6222C49.6094 27.7009 50.4837 28.5752 51.5625 28.5752H53.5157C54.5943 28.5752 55.4688 27.7009 55.4688 26.6222C55.4688 25.5435 54.5943 24.6691 53.5157 24.6691Z" fill="black"/>
<path d="M37.8906 28.5752H39.8437C40.9226 28.5752 41.7969 27.7009 41.7969 26.6222C41.7969 25.5435 40.9226 24.6691 39.8437 24.6691H37.8906C36.812 24.6691 35.9374 25.5435 35.9374 26.6222C35.9374 27.7009 36.812 28.5752 37.8906 28.5752Z" fill="black"/>
<path d="M31.6406 55.5296C32.1543 55.5296 32.6583 55.3207 33.0214 54.9573C33.3849 54.5941 33.5937 54.0901 33.5937 53.5764C33.5937 53.0607 33.3849 52.559 33.0214 52.1936C32.6583 51.8304 32.1543 51.6233 31.6406 51.6233C31.1269 51.6233 30.6232 51.8304 30.2597 52.1936C29.8966 52.559 29.6874 53.0607 29.6874 53.5764C29.6874 54.0901 29.8966 54.5941 30.2597 54.9573C30.6232 55.3207 31.1269 55.5296 31.6406 55.5296Z" fill="black"/>
</svg>

<svg width="100" height="100" fill="none" xmlns="http://www.w3.org/2000/svg"><path d="M45.703 60.547l-28.125 8.017v-10.98l28.125-8.017v10.98zm-35.937 37.5a7.812 7.812 0 100-15.625 7.812 7.812 0 000 15.625zM37.89 90.03a7.812 7.812 0 100-15.625 7.812 7.812 0 000 15.625zm39.765-71.22l20.392-5.877V1.953L77.655 7.83v10.98zm-7.813 29.483a7.812 7.812 0 100-15.625 7.812 7.812 0 000 15.625z" fill="#CAE0DD"/><path d="M76.707 82.912l-9.344 4.912 1.784-10.405-7.56-7.369 10.448-1.518 4.672-9.467 4.673 9.467 10.447 1.518-7.56 7.37 1.785 10.404-9.345-4.912zM14.681 21.547l-7.678 4.037 1.467-8.55-6.212-6.055 8.584-1.247 3.84-7.779 3.838 7.779 8.585 1.247-6.212 6.055 1.466 8.55-7.678-4.037z" fill="#7ADBAE"/><path d="M45.703 47.614c-.186 0-.365.027-.535.076v-.002l-5.61 1.6a1.953 1.953 0 101.07 3.756l3.122-.89v6.919l-24.219 6.903v-6.918l4.192-1.195a1.953 1.953 0 00-1.07-3.757l-5.61 1.6a1.953 1.953 0 00-1.418 1.878v24.843a9.713 9.713 0 00-5.86-1.958C4.382 80.469 0 84.849 0 90.234 0 95.62 4.38 100 9.766 100c5.384 0 9.765-4.381 9.765-9.766V70.038l24.219-6.904V74.41a9.715 9.715 0 00-5.86-1.958c-5.384 0-9.765 4.38-9.765 9.766 0 5.384 4.381 9.765 9.766 9.765 5.384 0 9.765-4.38 9.765-9.765V49.567a1.953 1.953 0 00-1.953-1.953zM9.766 96.094a5.866 5.866 0 01-5.86-5.86c0-3.23 2.629-5.86 5.86-5.86 3.23 0 5.859 2.63 5.859 5.86a5.867 5.867 0 01-5.86 5.86zm28.125-8.017a5.866 5.866 0 01-5.86-5.86 5.867 5.867 0 015.86-5.859 5.867 5.867 0 015.859 5.86 5.867 5.867 0 01-5.86 5.859zM99.221.393a1.954 1.954 0 00-1.715-.316L77.114 5.953A1.953 1.953 0 0075.7 7.83v24.844a9.714 9.714 0 00-5.859-1.959c-5.385 0-9.765 4.381-9.765 9.766s4.38 9.766 9.765 9.766c5.385 0 9.766-4.381 9.766-9.766V20.28l18.98-5.47A1.953 1.953 0 00100 12.933V1.953c0-.613-.289-1.191-.779-1.56zM69.842 46.34a5.866 5.866 0 01-5.86-5.86c0-3.23 2.63-5.858 5.86-5.858 3.23 0 5.86 2.628 5.86 5.859 0 3.23-2.63 5.86-5.86 5.86zm26.252-34.877l-16.486 4.751V9.3l16.486-4.751v6.914zm-3.986 56.654l-9.432-1.37L78.46 58.2a1.953 1.953 0 00-3.503 0l-4.218 8.546-9.431 1.37a1.954 1.954 0 00-1.082 3.332L67.05 78.1l-1.611 9.393a1.954 1.954 0 002.833 2.06l8.436-4.436 8.436 4.435a1.95 1.95 0 002.056-.148 1.952 1.952 0 00.777-1.91l-1.61-9.394 6.824-6.653a1.953 1.953 0 00-1.082-3.33zm-9.204 7.903a1.952 1.952 0 00-.562 1.729l1.116 6.505-5.842-3.071c-.569-.3-1.249-.3-1.818 0l-5.841 3.07 1.115-6.504a1.952 1.952 0 00-.561-1.728l-4.726-4.607 6.53-.95a1.953 1.953 0 001.471-1.067l2.921-5.919 2.921 5.919c.285.576.834.975 1.47 1.068l6.531.949-4.725 4.606zM6.371 17.716l-1.293 7.538a1.953 1.953 0 002.834 2.059l6.769-3.56 6.77 3.56a1.951 1.951 0 002.056-.15 1.953 1.953 0 00.777-1.91l-1.293-7.537 5.477-5.338a1.953 1.953 0 00-1.083-3.332l-7.568-1.1-3.384-6.857a1.953 1.953 0 00-3.503 0L9.545 7.947l-7.568 1.1a1.953 1.953 0 00-1.082 3.33l5.476 5.339zm4.752-6.051a1.953 1.953 0 001.47-1.069l2.088-4.23 2.088 4.23c.284.577.834.976 1.47 1.069l4.668.678-3.377 3.293a1.953 1.953 0 00-.562 1.729l.797 4.649-4.175-2.195a1.952 1.952 0 00-1.817 0l-4.176 2.195.798-4.65a1.953 1.953 0 00-.562-1.729l-3.378-3.292 4.668-.678zm34.58 5.192a1.953 1.953 0 00-1.953 1.953v1.953a1.953 1.953 0 103.906 0V18.81a1.953 1.953 0 00-1.953-1.953zm0 13.671a1.953 1.953 0 00-1.953 1.954v1.953a1.953 1.953 0 103.906 0v-1.953a1.953 1.953 0 00-1.953-1.954zm7.813-5.858h-1.953a1.953 1.953 0 100 3.905h1.953a1.953 1.953 0 100-3.906zM37.89 28.575h1.954a1.953 1.953 0 100-3.906H37.89a1.953 1.953 0 000 3.906z" fill="#000"/><path d="M31.64 55.53a1.97 1.97 0 001.381-.573c.364-.363.573-.867.573-1.38 0-.516-.21-1.018-.573-1.383a1.966 1.966 0 00-1.38-.57c-.514 0-1.018.206-1.381.57a1.973 1.973 0 00-.573 1.382c0 .514.21 1.018.573 1.381.363.364.867.573 1.38.573z" fill="#000"/></svg>
